X:1
T:Christmas Time Is Come Again
T:Christmas Time Is Come Again
T:Anonymous, 1863
T:Public Domain Courtesy of the Cyber Hymnal™
T:Public Domain Courtesy of the Cyber Hymnal™
C:Anonymous, 1863
Z:Public Domain
Z:Courtesy of the Cyber Hymnal™
%%score ( 1 2 ) ( 3 4 )
L:1/8
Q:1/4=95
M:3/4
K:F
V:1 treble 
V:2 treble 
V:3 bass 
V:4 bass 
V:1
 [FA]>[FA] [FA]3 [FA] | [FA]>[EG] [EG]4 C | C[CE] [EG]3 [GB] | [GB] [FA]3 z2 | C[CF] [FA]3 [Cc] | %5
w: 1.~Christ- mas time is|come a- gain, Chr-|ist- mas plea- sures|bring- ing;|Let us join our|
w: 2.~An- gels sang, let|men re- ply, And|child- ren raise their|voic- es;|Raise the chor- us|
 [Dc]>[DB] [B,D]2 z2 [B,D] | [A,C][CF] [FA]3 [EG] | [EG] [CF]3 z2 | [CE][DF] [EG]3 [FA] | %9
w: voic- es now, And|Christ- mas songs be|sing- ing.|Years a- go, one|
w: loud and high, Ea-|rth and Heav’n re-|joic- es.|When we reach that|
 [EG][CE] [EG]4 | [Fc][F=B] [FA]3 [FB] | [Fd] [Ec]3 z2 | [CE][DF] [EG]3 [FA] | [EG][CE] [EG]4 | %14
w: star- ry night,|Thus the sto- ry’s|giv- en,|An- gel bands o’er|Beth- lehem’s plains,|
w: hap- py place|Joy- ous prais- es|bring- ing,|Then, be- fore our|Fa- ther’s face,|
 [EG]3 [DF] [CE]>[=B,D] | [=B,D] C3 z2 ||"^Refrain" [FA]>[FA] [FA]3 [FA] | [FA]>[EG] [EG]4 | %18
w: Sang the songs of|Heav- en.|Glo- ry be to|God on high!|
w: We shall still be|sing- ing.|||
 C[CE] [EG]3 [GB] | [GB] [FA]3 z2 | C[CF] [FA]3 [Cc] | [Dc]>[DB] [B,D]2 z2 | [A,C][CF] [FA]3 [EG] | %23
w: Peace, good will to|mor- tals!|Christ the Lord is|born to- night,|Heav’n throws wide its|
w: |||||
 [EG] [CF]3 z2 |] %24
w: por- tals.|
w: |
V:2
 x6 | x6 C | C x5 | x6 | C x5 | x7 | x6 | x6 | x6 | x6 | x6 | x6 | x6 | x6 | x6 | x C3 x2 || x6 | %17
 x6 | C x5 | x6 | C x5 | x6 | x6 | x6 |] %24
V:3
 [F,C]>[F,C] [F,C]3 [F,C] | [C,C]>[C,C] [C,C]4 [C,C] | [C,C][C,G,] [C,C]3 [C,C] | [F,C] [F,C]3 z2 | %4
 [F,A,][F,A,] [F,C]3 [F,A,] | [B,,B,]>[B,,B,] [B,,F,]2 z2 [B,,F,] | [C,F,][C,A,] [C,C]3 [C,B,] | %7
 [E,B,] [F,A,]3 z2 | [C,G,][C,G,] (G,2 C)[C,C] | [C,C][C,C] [C,C]4 | [G,D][G,D] [G,D]3 [G,D] | %11
 [C,=B,] [C,C]3 z2 | [C,G,][C,G,] (G,2 C)[C,C] | [C,C][C,G,] [C,G,]4 | %14
 [G,,G,]3 [G,,G,] [G,,G,]>[G,,F,] | [C,F,] [C,E,]3 z2 || [F,C]>[F,C] [F,C]3 [F,C] | %17
 [C,C]>[C,C] [C,C]4 | [C,C][C,G,] [C,C]3 [C,C] | [F,C] [F,C]3 z2 | [F,A,][F,A,] [F,C]3 [F,A,] | %21
 [B,,B,]>[B,,B,] [B,,F,]2 z2 | [C,F,][C,A,] [C,C]3 [C,B,] | [E,B,] [F,A,]3 z2 |] %24
V:4
 x6 | x7 | x6 | x6 | x6 | x7 | x6 | x6 | x2 C,3 x | x6 | x6 | x6 | x2 C,3 x | x6 | x6 | x6 || x6 | %17
 x6 | x6 | x6 | x6 | x6 | x6 | x6 |] %24

